X:1
T:Title
%%score { ( 1 3 ) | 2 }
L:1/8
M:6/8
K:Ab
V:1 treble nm="Grand Piano"
V:3 treble 
V:2 bass 
V:1
 z3 z2[Q:1/4=90] E | [CE][Ec][DB] [CA][A,EG][A,DF] | z[K:bass] [CE]2- [CE]2 z | %3
 [CE][A,CA][A,CA] [=DA][DB][Dc] | [DB]6 | [Ec][A,CA][A,CA] [CA][A,B,G][A,CA] | z [DF]2- [DF]2 z | %7
 [DG][B,DG][B,DG] [DG][B,DA][B,DB] |[M:5/8] [CA]-[CA]- [CA]3 |[M:1/8] [CE] | %10
[M:3/4] [Ec]>[=D_c] [E=c] [CA]2 [EA]/[EA]/ | [FA][EG] [DF] [CE]2 [CE] | [CE][EA] Bc- c/B/A | %13
[M:7/8] A[=DB][Dc] B3 E |[M:3/4] [Ec]>[=D_c] [E=c] [CA]2 [CA] | [FA]>[EG] [DF] [CE]2 [CE] | %16
 [CE][EA] Bc- c/B/A |[M:5/8] BAG [CEA]2 |] %18
V:2
 z3 z2 C | A,,[E,A,][E,A,] A,,E,E, | A,,E,E, A,,E,E, | A,,E,E, B,,[F,A,][F,A,] | E,G,F, E,2 F | %5
 A,,E,E, A,,E,E, | D,F,F, D,F,B,, | E,G,G, E,G,G, |[M:5/8] A,,E,C, A,,2 |[M:1/8] [A,,A,] | %10
[M:3/4] [A,,A,]>[A,,A,] [A,,A,] [A,,E,]2 [C,A,]/[C,A,]/ | [D,A,][D,A,] [D,A,] [A,,A,]2 [A,,A,] | %12
 [A,,A,][C,A,] [E,G,E][A,E]- [A,E]/[A,D]/[A,C] |[M:7/8] [F,A,=D][B,,A,][B,,A,] [E,G,E]3 [E,G,] | %14
[M:3/4] [A,,A,]>[A,,A,] [A,,A,] [A,,E,]2 [A,,E,] | [D,F,]>[D,F,] [D,A,] [A,,A,]2 [A,,A,] | %16
 [A,,A,][C,A,] [E,G,E][A,E]- [A,E]/[A,DE]/[A,CE] |[M:5/8] [E,DE][E,CE][E,B,E] A,,2 |] %18
V:3
 x6 | x6 | [DF][K:bass]A,A, z A,[A,CE] | x6 | z B,A, G,2 d | x6 | [DB]A,A, z A,[B,=DA] | x6 | %8
[M:5/8] x5 |[M:1/8] x |[M:3/4] x6 | x6 | x6 |[M:7/8] x7 |[M:3/4] x6 | x6 | x6 |[M:5/8] x5 |] %18

